X: 1
T: Watts's Cradle Song   [C#m]
R:
Z: 2021 John Chambers <jc:trillian.mit.edu>
M: 4/4
L: 1/8
K: C#m
[|\
"C#m"C2E2 C2B,C | "E"E2E2 "C#m"(CB,)G,2 | "G#m"B,3C B,2G,2 | "E"E2"B"F2 "E"G4 || "C#m"G2B2 (GF)E2 |
"F#m"F2(GF) "C#m"(EC)"B"B,2 | "C#m"C3D E2G,2 |[M:2/4] G,2B,2 |[M:4/4] "C#m"C8- | C8 |]
"E"E4 "B"F4 | "E"G8 | "A"E4 "G#m"DCB,2 | "C#m"C6 D2 || "E"E4 "B"F2EF | "E"G3A G2FE | "F#m"F4 "B"B4 | "C#m"G8- | G8 |]
